X: 38190
T: Sprig Of Rowan
R: reel
M: 4/4
K: Aminor
aeee geee|deee cAAA|aeee geee|deee geee|
aeee geee|deee cAAA|aeee geee|cAAA cAAA:|
GAAA cAAA|GAAA dAAA|GAAA dAAA|cdeg geee|
GAAA cAAA|GAAA dAAA|GAAA dAAA|cdga aeee:|

